_includes/icons/ios-home-address-2.svg

<svg fill="#666" height="50" viewBox="0 0 50 50" width="50" xmlns="http://www.w3.org/2000/svg"><path d="m25 2c-8.824219 0-16 7.175781-16 16 0 6.34375 3.863281 13.664063 7.65625 19.5 3.792969 5.835938 7.59375 10.15625 7.59375 10.15625.191406.214844.464844.339844.75.339844s.558594-.125.75-.339844c0 0 3.800781-4.328125 7.59375-10.15625s7.65625-13.125 7.65625-19.5c0-8.824219-7.175781-16-16-16zm0 2c7.742188 0 14 6.257813 14 14 0 5.539063-3.636719 12.742188-7.34375 18.4375-3.109375 4.773438-5.734375 7.917969-6.65625 9-.917969-1.082031-3.542969-4.242187-6.65625-9.03125-3.707031-5.703125-7.34375-12.90625-7.34375-18.40625 0-7.742187 6.257813-14 14-14zm0 7.84375-.5.3125-7.5 4.5 1 1.6875v7.65625h14v-7.65625l1-1.6875-7.5-4.5zm0 2.3125 5 3v6.84375h-3v-5h-4v5h-3v-6.84375z"/></svg>

<svg xmlns="http://www.w3.org/2000/svg" viewBox="0 0 50 50" width="50" height="50" fill="#666"><path d="M 25 2 C 16.175781 2 9 9.175781 9 18 C 9 24.34375 12.863281 31.664063 16.65625 37.5 C 20.449219 43.335938 24.25 47.65625 24.25 47.65625 C 24.441406 47.871094 24.714844 47.996094 25 47.996094 C 25.285156 47.996094 25.558594 47.871094 25.75 47.65625 C 25.75 47.65625 29.550781 43.328125 33.34375 37.5 C 37.136719 31.671875 41 24.375 41 18 C 41 9.175781 33.824219 2 25 2 Z M 25 4 C 32.742188 4 39 10.257813 39 18 C 39 23.539063 35.363281 30.742188 31.65625 36.4375 C 28.546875 41.210938 25.921875 44.355469 25 45.4375 C 24.082031 44.355469 21.457031 41.195313 18.34375 36.40625 C 14.636719 30.703125 11 23.5 11 18 C 11 10.257813 17.257813 4 25 4 Z M 25 11.84375 L 24.5 12.15625 L 17 16.65625 L 18 18.34375 L 18 26 L 32 26 L 32 18.34375 L 33 16.65625 L 25.5 12.15625 Z M 25 14.15625 L 30 17.15625 L 30 24 L 27 24 L 27 19 L 23 19 L 23 24 L 20 24 L 20 17.15625 Z"/></svg>
